X: 1
T: The Air Tune
R: reel
M: 4/4
L: 1/8
K: Dmaj
Affe f2ed|a2de f2ed|Beed fded|BA ~A2 BAFG|
Affe f2ed|a2de f2ed|dBBe dBcd|1 f2ed d3B:|2 f2ed defg||
a2ga fgef|edcd FADA|Beed fded|BA ~A2 BAFG|
a2ga fgef|edcd FADA|GBBA d2BA|1 Affe defg:|2 Affe d3B||


Tune 2833	Setting 25863

